X: 892
T: Alexander's
R: hornpipe
M: 4/4
K: Dmajor
|:(3ABc|dAFA DFAd|fd cd Adef|~g3e ~f3d|(3efe (3dcB A2 (3ABc|
dAFA DFAd|fdcd Adef|~g3e ~f3d|(3efe dc d2:|
|:AG|FAdA FAdA|GBdB GBdB|Acec Acec|dfaf (3gfe dA|
FAdA FAdA|GBdB GBdB|Acef ge cd|(3efe dc d2:|

